!! 00008] TT[TB
!! Eigene Aufnahme
!!!OTL: Canglao de dayan
!!!ARE: Neimeng Xilingele
!! Ethnic Group: Menggu
!! IV, 333
!!!SCT: C0195
!!!YEM: Copyright 1995, estate of Helmut Schaffrath.
**kern
*ICvox
*Ivox
!! Mixed meters:  3/4; 4/4
*M4/4
*k[b-e-]
*B-:
{4.gg
8ff
8gg
24ff
24gg
24bb-
=1
8.ff
16ff
[2ff
8ff]
48dd
48ff
48dd
32ff
32bb-
=2
8dd
24dd
24dd
24ff
8cc
[8cc
2cc]}
=3
{8ff
16gg
16gg
8gg
24bb-
24ccc
24bb-
8gg
8bb-
16gg
16ff
8ff}
=4
{8ff
16gg
16gg
8bb-
8ccc
2ccc}
=5
*M3/4
{8ccc
8bb-
4.ggg
8bbb-
=6
2gg
8bb-
24bb-
24bb-
24ddd
=7
2.gg}
=8
{[2ff
8ff]
24ff
24ff
24bb-
=9
8ff
16ff
16bb-
8dd
24dd
24dd
24ff
16.cc
32cc
16cc
16cc
=10
2.cc}
=11
{8ff
24gg
24gg
24gg
8gg
24gg
24gg
24ccc
16bb-
16bb-
16gg
16gg
=12
*M4/4
8ff
16gg
16gg
8gg
24bb-
24bb-
24ccc
2ccc}
=13
{8ccc
8bb-
4.ggg
48fff
48ggg
48fff
32ggg
32bbb-
=14
2gg
8bb-
24bb-
24bb-
24ddd
=15
2.gg}
==
!!!AGN: Yange. Jiuxiyanhui shang chang
!! +++Ggf. schon vorhanden?? Saenger: Chao Lun Batou
!!    Wird im Freien hoeher intoniert als bei Bankett und Trinkgelage.
!!    +++Zwei QUINTOLEN in TRIOLE + 2*1/32 geaendert (1. und letzte Zeile).
!!    VARIANTE. Zu viele Verzierungen notiert. Phrasen sollten vermutl.
!!    auftaktig beginnen. +++ Phraseneinteilung der letzten beiden
!!    nach Transkription veraendert. +++
!!!ONB: ESAC (Essen Associative Code) Database: CHINA
!!!AMT: irregular
!!!AIN: vox
!!!EED: Helmut Schaffrath
!!!EEV: 1.0
*-
